X:275
T:Over the Bog Road
Z: id:dc-reel-255
M:C
L:1/8
K:G Major
GEDE G3A|Bdgd BGG2|AGEG A3d|Bdgd B2AB|!
GEDE G3A|Bdgd BGG2|Bdgd e2ge|dBAd BGG2:|!
gede g3a|b2ab gedg|ageg a3b|c'abg agea|!
gede g3a|b2af gfed|Bdgd e2ge|dBAd BGG2:|!

